X: 16275
T: Grey Dog, The
R: strathspey
M: 4/4
K: Adorian
A>G|:E<A A>B c>B c>d|e<A A>G E2 E>D|E<A A>B c>B c>d|e<a a>g e<d e2|
e<A A>A c>d e2|e<A A>A c>d e>g|a>e g<d e>A c2|B<E E>G A2 A>c:|
|:E<A A<B c2|E>A c<d B2|E>G A<G E<D|
E2 D>E G>E D<C|A,2 A>G E2 C2|D>E D>D A<E G>E|1 D<D E<G A2 A<G:|2 D<D E<G A2 A<c||

